!!!!SEGMENT: T358_Bar-w46b5p38m1-20.krn
!!!COM: Bartók, Béla
!!!OTL: 138: Bagpipe Music
!!!OMD:
!!!AGN: Instrumental
!!!AGN-sub: Keyboard
!!!CNT: Hungarian
!!!ODT: 1926 (rev. 1939)
!!!OPR: Mikrokosmos (Microcosmos) for Piano
!!!filename: T358_Bar-w46b5p38m1-20.krn
**kern	**kern	**dynam
*grp:A	*grp:B	*
*part1	*part1	*
*staff2	*staff1	*staff1/2
*ICklav	*ICklav	*
*Ipiano	*Ipiano	*
*I"Piano	*I"Piano	*
*I'pf	*I'pf	*
*clefF4	*clefG2	*
*k[]	*k[]	*
*C:	*C:	*
!!LO:TX:omd:tempo:a:t=Allegretto\n[quarter]=132
*M2/4	*M2/4	*
=1	=1	=1
*^	*	*
*ped	*	*	*
4.G	8G	2r	mf
.	4d	.	.
[<8G	8G	.	.
=2	=2	=2	=2
4G]	4d	2r	.
[<4G	8GL	.	.
.	[>8dJ	.	.
=3	=3	=3	=3
*	*	*^	*
8G]	8d]	4r	4ryy	.
4.G	8G	.	.	.
.	4d	8r	8ryy	.
.	.	8ryy	[8a\	.
=4	=4	=4	=4	=4
!	!	!LO:TX:B:t=5	!	!
4.G	8G	(8ggL	2a_	.
.	4d	16ff#XL	.	.
.	.	16eeJJ	.	.
.	.	8dd'L)	.	.
!	!	!LO:TX:B:t=2	!	!
[<8G	8G	(8ccJ	.	.
=5	=5	=5	=5	=5
4G]	4d	8dd'L)	2a_	.
.	.	8dd'J	.	.
!	!	!LO:TX:B:t=3	!	!
[<4G	8GL	(20eeLL	.	.
!	!	!LO:TX:B:t=5	!	!
.	.	20ffn	.	.
.	.	20ee	.	.
.	[>8dJ	.	.	.
.	.	20ff	.	.
.	.	20eeJJ	.	.
=6	=6	=6	=6	=6
8G]	8d]	2dd)	2a]	.
4.G	8G	.	.	.
.	4d	.	.	.
=7	=7	=7	=7	=7
4.G	8G	(8ggL	2a	.
.	4d	16ff#XL	.	.
.	.	16eeJJ	.	.
.	.	8dd'L)	.	.
!	!	!LO:TX:B:b:t=4	!	!
[<8G	8G	(8ccJ	.	.
=8	=8	=8	=8	=8
4G]	4d	8b'L)	8b	.
.	.	8g'>J	8ryy	.
[<4G	8GL	(>20aLL	4ryy	.
.	.	20b-X	.	.
.	.	20a	.	.
.	[>8dJ	.	.	.
.	.	20b-	.	.
.	.	20aJJ	.	.
*	*	*v	*v	*
=9	=9	=9	=9
8G]	8d]	2g)	.
4.G	8G	.	.
.	4d	.	.
=10	=10	=10	=10
*	*	*^	*
!	!	!LO:TX:B:b:t=1	!	!
4.G	8G	(>8dL	4ryy	.
!	!	!LO:TX:B:b:t=2	!	!
.	4d	8gJ)	.	.
!	!	!LO:TX:B:b:t=1	!	!
.	.	(16aLL	[4a	.
.	.	16bJ	.	.
[<8G	8G	8ccJ	.	.
=11	=11	=11	=11	=11
4G]	4d	8dd'L)	2a_	f
!	!	!LO:TX:B:t=2	!	!
.	.	8dd'J	.	.
!	!	!LO:TX:B:t=3	!	!
[<4G	8GL	(20eeLL	.	.
!	!	!LO:TX:B:t=5	!	!
.	.	20ff	.	.
.	.	20ee	.	.
.	[>8dJ	.	.	.
.	.	20ff	.	.
.	.	20eeJJ	.	.
=12	=12	=12	=12	=12
8G]	8d]	2dd)	2a]	.
4.G	8G	.	.	.
.	4d	.	.	.
*	*	*v	*v	*
=13	=13	=13	=13
!	!	!LO:TX:B:t=1	!
4.G	8G	8d	.
!	!	!LO:TX:B:t=2	!
.	4d	(>8gL	.
.	.	16dL	.
.	.	16gJ	.
[8G	8G	8aJ	.
=14	=14	=14	=14
4G]	4d	8b'/L)	.
.	.	8b'J	.
!	!	!LO:TX:B:t=2	!
[<4G	8GL	(20aLL	.
.	.	20b-X	.
.	.	20a	.
.	[>8dJ	.	.
.	.	20b-	.
.	.	20aJJ)	.
=15	=15	=15	=15
8G]	8d]	(>[4g	<
!	!LO:TX:B:b:t=1	!	!
4.G	8G	.	.
!	!LO:TX:B:b:t=2	!LO:TUP:br:b	!
.	4D	/28gLL]	.
.	.	28a	.
.	.	28b	.
!	!	!LO:TX:B:t=1	!
.	.	28cc	.
.	.	28dd	.
.	.	28ee	.
.	.	28ffJJ)	[
=16	=16	=16	=16
*	*	*^	*
!	!LO:TX:B:b:t=5	!	!	!
8GG	4.GG	(8ggL	[2a	.
!LO:TX:B:b:t=2	!	!	!	!
4D	.	16ff#XL	.	.
.	.	16eeJJ	.	.
.	.	8dd'L)	.	.
!	!LO:TX:B:b:t=5	!LO:TX:B:t=2	!	!
8G	[8G	(8ccJ	.	.
=17	=17	=17	=17	=17
!	!LO:TX:B:b:t=2	!	!	!
4d	4G]	8dd'L)	2a]	.
.	.	8dd'J	.	.
!	!	!LO:TX:B:t=3	!	!
8GG	[4GG	(20eeLL	.	.
!	!	!LO:TX:B:t=5	!	!
.	.	20ffn	.	.
.	.	20ee	.	.
[8D/L	.	.	.	.
.	.	20ff	.	.
.	.	20eeJJ	.	.
=18	=18	=18	=18	=18
!	!	!LO:TX:B:t=1	!	!
!	!	!LO:TX:B:t=5	!	!
8DJ]	8GG]	2dd)	8a'L	.
8G	4.G	.	8a'J	.
4d	.	.	(20bLL	.
.	.	.	20cc	.
.	.	.	20b	.
.	.	.	20cc	.
.	.	.	20bJJ	.
=19	=19	=19	=19	=19
8GG	4.GG	(8ggL	2a)	.
4D	.	16ff#XL	.	.
.	.	16eeJJ	.	.
.	.	8dd'L)	.	.
!	!	!LO:TX:B:t=4	!	!
8G	[8G	(8ccJ	.	.
=20	=20	=20	=20	=20
4d	4G]	8b'L)	8b	.
.	.	8g'>J	8ryy	.
8GG	[4GG	(20aLL	4ryy	.
.	.	20b-X	.	.
.	.	20a	.	.
!LO:TX:t=P:problem:Cross-Measure Hanging Beam to be implemented.	!	!	!	!
[8D	.	.	.	.
.	.	20b-	.	.
.	.	20aJJ)	.	.
*v	*v	*	*	*
*	*v	*v	*
=	=	=
*-	*-	*-
!!!system-decoration: [({(s1,s2)})]
!!!RDF**kern: > = above
!!!RDF**kern: < = below
!!!EED: Rafael Laurindo
!!!EEV: 2021/07/15
!!!EED2: Gabriella Vici
!!!Suter_Work_ID: Bar-46
!!!Suter_Example_Number: 358
!!!Suter_Example_ID: Bar-46^5/38/1-20
!!!Premiere_Location: unknown
!!!Other_Tsigs: none
!!!Full_Unit_Duration: 1:14
!!!First_Publication_Year: 1940
!!!First_Public_Performance_Year: unknown
!!!Example_Total_Measures: 20
!!!Example_Timestamp_Duration: 19
!!!Example_Start_Tsig_Type: simple duple
!!!Example_Start_Tsig_Mean_Beat_Rate: 132
!!!Example_Start_Tsig_Beat_Rate: 132
!!!Example_Start_Tsig_Beat: quarter
!!!Example_Start_Tsig: 2/4
!!!Example_Start_Timestamp: 0:00
!!!Example_Start_Tempo_Expression: Allegretto
!!!Example_Start_Notated_Beat_Rate: 132
!!!Example_Start_Notated_Beat: quarter
!!!Example_Start_Measure: 1
!!!Example_Metadata_Validated: Y
!!!Example_End_Timestamp: 0:19
!!!Example_End_Measure: 20
!!!Example_Dataset: T
!!!Editorial_Comments:
!!!Death_Place: New York,United States
!!!Death_Date: 26-Sep-1945
!!!Changing_Tsig: no
!!!Birth_Place: Sînnicolau Mare (Nagyszentmiklós),Romania (Hungary)
!!!Birth_Date: 25-Mar-1881
!!!Audio_Example_Quarter_Note_Tempo:
!!!Audio_Example_Duration:
!!!EEV2: 2022/02/09
